X: 29
M:6/8
L:1/8
K:D
dcB ABG|FGE D3|def ecA|B3 d3||
d2 e fgf|e2 d c2 A|d2 e fgf|e3 A3|
d2 e fgf|e2 d cBc|dcB AFA|B3 d3||

